X: 4
M: 6/8
L: 1/8
K: D
| "D"FAA dAA | "D"BAA dAG | "D"FAA dfe | "G"dBB BAG \
| "D"FAA dAA | "G"BA"D"A def | "G"{a}gfe "D"dfe | "Bm"dBB B2 :|
|: g \
| "Bm"fbb "D"faa | "D"fed deg | "Bm"fbb "D"faa | "D"fed "A"e2g \
| "Bm"fbb "D"faa | "D"fed def | "G"gfe "D"dfe | "Bm"dBB B2 :|


